X:2077
T:Carval Yoseph
C:Traditional 
O:Isle of Man
Z:Clague collection
B:Kiaull Vannin #77
N:Variation #3 of Carval Yoseph, (Journal of the Folk Song Society Vol.7, 29) 
N:See als KV 26, 75, 107
M:3/4 
L:1/4
Q:100 
K:D 
A d c/B/|A2 F|G2 A/B/|A3|A d f|f2 d|e3| 
fB c|d2 e|c2B|A3|d d d|e2 f|d3|| 

